modules/hawcons-filled/icons/icon-23-worried-face.svg

<?xml version="1.0" encoding="UTF-8" standalone="no"?>
<svg width="32px" height="32px" viewBox="0 0 32 32" version="1.1" xmlns="http://www.w3.org/2000/svg" xmlns:xlink="http://www.w3.org/1999/xlink" xmlns:sketch="http://www.bohemiancoding.com/sketch/ns">
    <!-- Generator: Sketch 3.0.3 (7891) - http://www.bohemiancoding.com/sketch -->
    <title>icon 23 worried face</title>
    <desc>Created with Sketch.</desc>
    <defs></defs>
    <g id="Page-1" stroke="none" stroke-width="1" fill="none" fill-rule="evenodd" sketch:type="MSPage">
        <g id="icon-23-worried-face" sketch:type="MSArtboardGroup" fill="#929292">
            <path d="M16.5,29 C23.4035597,29 29,23.4035597 29,16.5 C29,9.59644029 23.4035597,4 16.5,4 C9.59644029,4 4,9.59644029 4,16.5 C4,23.4035597 9.59644029,29 16.5,29 Z M16.4969482,22 C13.5,22 12,23 12,23 C12,23 13,20 16.5,20 C20,20 21,23 21,23 C21,23 19.4938965,22 16.4969482,22 Z M12,15 C12.5522848,15 13,14.5522848 13,14 C13,13.4477152 12.5522848,13 12,13 C11.4477152,13 11,13.4477152 11,14 C11,14.5522848 11.4477152,15 12,15 Z M21,15 C21.5522848,15 22,14.5522848 22,14 C22,13.4477152 21.5522848,13 21,13 C20.4477152,13 20,13.4477152 20,14 C20,14.5522848 20.4477152,15 21,15 Z M19,10 L19,11 L23,11 L23,10 L19,10 Z M10,10 L10,11 L14,11 L14,10 L10,10 Z" id="worried-face" sketch:type="MSShapeGroup"></path>
        </g>
    </g>
</svg>

<svg width="32" height="32" xmlns="http://www.w3.org/2000/svg"><path d="M16.5 29C23.404 29 29 23.404 29 16.5S23.404 4 16.5 4 4 9.596 4 16.5 9.596 29 16.5 29zm-.003-7C13.5 22 12 23 12 23s1-3 4.5-3 4.5 3 4.5 3-1.506-1-4.503-1zM12 15a1 1 0 1 0 0-2 1 1 0 0 0 0 2zm9 0a1 1 0 1 0 0-2 1 1 0 0 0 0 2zm-2-5v1h4v-1h-4zm-9 0v1h4v-1h-4z" fill="#929292" fill-rule="evenodd"/></svg>
